!!!!SEGMENT: pl-kk--kk-i-382--069_anonim--offertorium-nro-10.krn
!!!cenid: 18xx:1571
!!!COM: Anonim
!!!COM-rismid: pe30004985
!!!CDT:
!!!CNT:
!!!OTL: Offertorium Nro 10
!!!PDT:
!!!AGN: Sacred
!!!SMS-siglum: PL-Kk
!!!SMS-shelfmark: Kk.I.382
!!!SMS-shelfwork: 055 W
!!!SMS-variant:
!!!SMS-altvar:
!!!NIFC-rismid: 1001141105
!!!URL-scan: http://repozytorium.nifc.pl/skany/pl-kk-nut--i-382
!!!ONB-nifc: UWAGA: Offertorium od skanów: 0044-0045 (S/T1), 0189 (A/B1), 0116 (T2), 0266 (B2)
**kern	**text	**dynam	**kern	**text	**kern	**text	**kern	**text
*part4	*part4	*part4	*part3	*part3	*part2	*part2	*part1	*part1
*staff4	*staff4	*	*staff3	*staff3	*staff2	*staff2	*staff1	*staff1
*Ibass	*	*	*Itenor	*	*Ialto	*	*Itenor	*
*I"Basso II	*	*	*I"Tenore II	*	*I"Alto vel Basso I	*	*I"Soprano vel Tenore I.	*
*I'B 2	*	*	*I'T 2	*	*I'A (B 1)	*	*I'S (T 1)	*
*clefF4	*	*	*clefC4	*	*clefC3	*	*clefC1	*
*k[b-]	*	*	*k[b-]	*	*k[b-]	*	*k[b-]	*
*F:	*	*	*F:	*	*F:	*	*F:	*
*M3/2	*	*	*M3/2	*	*M3/2	*	*M3/2	*
=1	=1	=1	=1	=1	=1	=1	=1	=1
*2\right	*	*	*2\right	*	*2\right	*	*2\right	*
*	*	*	*	*	*	*	*rscale:1/2	*
!LO:TX:a:t=Nro 10.	!	!	!LO:TX:a:t=Nro 10.	!	!LO:TX:a:t=Nro I0.	!	!LO:TX:a:t=Nro. I0.	!
!LO:TX:a:t=P:problem:napis "Nro. 10." przed klucze	!	!	!LO:TX:a:t=P:problem:napis "Nro. 10." przed klucze	!	!LO:TX:a:t=P:problem:napis "Nro. 10." przed klucze	!	!LO:TX:a:t=P:problem:napis "Nro. 10." przed kluczem	!
!LO:TX:a:i:t=De Beata Virgi. Marie.	!	!	!	!	!	!	!LO:TX:t=P:problem:metrum 3/4	!
!LO:TX:t=P:problem:all\right:global	!	!	!LO:TX:t=P:problem:all\right:global	!	!LO:TX:t=P:problem:all\right:global	!	!LO:TX:t=P:problem:all\right:global	!
1F	A-	.	1F	A-	1f	A-	1a	A-
2c\	-ve	.	2c\	-ve	2e\	-ve	2g\	-ve
=2	=2	=2	=2	=2	=2	=2	=2	=2
2E\	mun-	.	2E/	mun-	2g\	mun-	2cc\	mun-
!LO:TX:t=P:problem:2F poprawione na 1F	!	!	!	!	!	!	!	!
1F	-di	.	1F	-di	1f	-di	1a	-di
=3	=3	=3	=3	=3	=3	=3	=3	=3
1A	spes	.	2r	.	2r	.	2r	.
.	.	.	2A\	spes	(>4f\	spes	(>4a\L	spes
.	.	.	.	.	4a\)	.	4cc\)J	.
2B-\	ma-	.	2B-\	Ma-	(>4g\	Ma-	(>4b-\L	Ma-
.	.	.	.	.	4f\)	.	4a\)J	.
=4	=4	=4	=4	=4	=4	=4	=4	=4
1c	-ri-	.	1c	-ri-	(>2f\	-ri-	(>2a\	-ri-
.	.	.	.	.	4e\	.	4g\L	.
.	.	.	.	.	4d\)	.	4f\)J	.
2C/	-a	.	2C/	-a	2e\	-a	2g\	-a
=5	=5	=5	=5	=5	=5	=5	=5	=5
!	!	!LO:DY:b:t=f.:rj	!	!	!	!	!	!
1C	A-	f	1G	a-	1e	A-	1cc	a-
2G\	-ve	.	2G/	-ve	2d\	-ve	2bn\	-ve
=6	=6	=6	=6	=6	=6	=6	=6	=6
2BBn/	mun-	.	2G/	mun-	2g\	mun-	2dd\	mun-
1C	-di	.	1G	-di	1e	-di	1cc	-di
!	!	!	!LO:LB:g=original	!	!LO:LB:g=original	!	!LO:LB:g=original	!
=7	=7	=7	=7	=7	=7	=7	=7	=7
1E	spes	.	2r	.	2r	.	2r	.
.	.	.	2G/	spes	(>4e\	spes	(>4cc\L	spes
.	.	.	.	.	4g\)	.	4ee\)J	.
2F\	ma-	.	2A/	Ma-	(>4f\	Ma-	(>4dd\L	Ma-
.	.	.	.	.	4e\)	.	4cc\)J	.
=8	=8	=8	=8	=8	=8	=8	=8	=8
!	!	!	!LO:TX:t=P:problem:usunięta kreska taktowa	!	!	!	!	!
1G	-ri-	.	1G	-ri-	(>2e\	-ri-	(>2cc\	-ri-
.	.	.	.	.	4d\	.	4bn\L	.
.	.	.	.	.	4c\)	.	4a\)J	.
2GG/	-a	.	2G/	-a	2d\	-a	2b\	-a
!LO:LB:g=original	!	!	!	!	!	!	!	!
=9	=9	=9	=9	=9	=9	=9	=9	=9
1G	A-	.	2r	.	2r	.	2r	.
.	.	.	2G/	a-	2d\	A-	2bn\	a-
2F\	-ve	.	2G/	-ve	2d\	-ve	2b\	-ve
=10	=10	=10	=10	=10	=10	=10	=10	=10
(>4E\	mi-	.	(>4G/	mi-	(>4e\	mi-	(>4cc\L	mi-
4D\	.	.	4F/	.	4f\	.	4dd\)J	.
2E\)	.	.	2G/)	.	2e\)	.	(>2cc\	-tis
2C/	-tis	.	2G/	-tis	2g\	-tis	2ee\)	.
=11	=11	=11	=11	=11	=11	=11	=11	=11
4F\	a-	.	4A\	a-	(>1f	a-	1cc	a-
4E\	.	.	4G\	.	.	.	.	.
4F\	.	.	4A\	.	.	.	.	.
4G\	.	.	4B-\	.	.	.	.	.
4A\	.	.	4c\	.	4f\	.	2cc\	-ve
4E\	.	.	4G\	.	4g\)	.	.	.
=12	=12	=12	=12	=12	=12	=12	=12	=12
2F\	.	.	2A\	-ve	2c\	-ve	(>2a\	a-
2D\	.	.	(<2F/	a-	(>2d\	a-	2bn\)	.
2C/	-ve	.	2G/)	.	2e\)	.	2cc\	-ve
!	!	!	!	!	!	!	!LO:LB:g=original	!
=13	=13	=13	=13	=13	=13	=13	=13	=13
2A\	pi-	.	2F/	-ve	(>4f\	-ve	(>1cc	pi-
.	.	.	.	.	4e\)	.	.	.
2G\	.	.	1G	pi-	1d	pi-	.	.
2GG/	.	.	.	.	.	.	2bn\)	.
!	!	!	!LO:LB:g=original	!	!LO:LB:g=original	!	!	!
=14	=14	=14	=14	=14	=14	=14	=14	=14
!	!	!	!	!	!LO:SIC:v:l:s=-a	!	!	!
2C/	-a	.	2G/	-a	2e\	-ia	2cc\	-a
2c\	A-	.	2c\	A-	2e\	a-	2g\	a-
2B-\	-ve	.	2B-X\	-ve	2e\	-ve	2g\	-ve
=15	=15	=15	=15	=15	=15	=15	=15	=15
!	!	!	!	!	!LO:SIC:v:l:s=cha-	!	!	!
4A\	Cha-	.	4A\	Cha-	4f\	ha-	4a\	cha-
4G\	-ri-	.	4G\	-ri-	4g\	-ri-	4b-X\	-ri-
2A\	-ta-	.	2A\	-ta-	2f\	-ta-	2a\	-ta-
2F\	-te	.	2F/	-te	2a\	-te	2cc\	-te
!LO:LB:g=original	!	!	!	!	!	!	!	!
=16	=16	=16	=16	=16	=16	=16	=16	=16
4B-\	ple-	.	(>4B-\	ple-	(>4d\	ple-	[<1.f	ple-
4A\	.	.	4A\	.	4c\	.	.	.
4B-\	.	.	4B-\	.	4d\	.	.	.
4c\	.	.	4c\)	.	4e\)	.	.	.
4d\	.	.	(>4d\	na	(>4f\	na	.	.
4A\	.	.	4A\)	.	4c\)	.	.	.
=17	=17	=17	=17	=17	=17	=17	=17	=17
2B-\	.	.	2B-\	ple-	2d\	ple-	2f/]	.
2G\	.	.	2G/	.	2e\	.	2b-X\	.
2F\	na	.	2F/	.	2f\	.	2a\	-na
=18	=18	=18	=18	=18	=18	=18	=18	=18
2B-\	ple-	.	2B-X\	.	4g\	.	(>4b-\L	ple-
.	.	.	.	.	4f\	.	4a\)J	.
2c\	.	.	2c\	.	2f\	.	1g	.
2C/	.	.	2C/	.	2e\	.	.	.
!	!	!	!	!	!	!	!LO:LB:g=original	!
=19	=19	=19	=19	=19	=19	=19	=19	=19
2F\	-na	.	2F/	-na	2f\	-na	2a\	-na
!	!	!LO:DY:b:t=f.:rj	!	!	!	!	!	!
2F\	vir-	f	2c\	Vir-	2f\	vir-	(>4b-\L	Vir-
.	.	.	.	.	.	.	4ccn\)J	.
2E\	-go	.	2en\	-go	2g\	-go,	2cc#X\	-go
!	!	!	!LO:LB:g=original	!	!LO:LB:g=original	!	!	!
=20	=20	=20	=20	=20	=20	=20	=20	=20
2D\	dul-	.	2f\	dul-	2a\	dul-	2dd\	dul-
2E\	-cis	.	2en\	-cis	2g\	-cis	2cc#X\	-cis
2F\	et	.	(>4d\	et	2f\	et	2dd\	et
.	.	.	4c\)	.	.	.	.	.
=21	=21	=21	=21	=21	=21	=21	=21	=21
2G\	se-	.	2B-X\	se-	2e\	se-	2dd\	se-
2A\	-re-	.	1A	-re-	1e	-re-	(>2dd\	-re-
2AA/	.	.	.	.	.	.	2cc#X\)	.
=22	=22	=22	=22	=22	=22	=22	=22	=22
2D\	-na	.	2A\	-na	2d\	-na	2dd\	-na
(>2A\	vir-	.	2r	.	2c\	vir-	2a\	vir-
2B-X\)	.	.	2r	.	2d\	-go	2b-X\	-go
!LO:LB:g=original	!	!	!	!	!	!	!	!
=23	=23	=23	=23	=23	=23	=23	=23	=23
2A\	-go,	.	2r	.	2c/	dul-	2a\	dul-
2F\	vir-	.	2c\	vir-	2A/	-cis	2f/	-cis
2B-\	-go	.	2d\	-go	2r	.	2r	.
!	!	!	!	!	!	!	!LO:LB:g=original	!
=24	=24	=24	=24	=24	=24	=24	=24	=24
2.A\	dul-	.	2.c\	dul-	2r	.	2r	.
.	.	.	.	.	2r	.	2r	.
4G\	-cis	.	4B-\	-cis	.	.	.	.
2F\	et	.	2A\	et	2f\	et	2cc\	et
=25	=25	=25	=25	=25	=25	=25	=25	=25
2B-\	se-	.	2d\	se-	2f\	se-	(>4b-\L	se-
.	.	.	.	.	.	.	4a\)J	.
2c\	-re-	.	1c	-re-	(>2f\	-re-	1g	-re-
2C/	.	.	.	.	2e\)	.	.	.
!	!	!	!	!	!LO:LB:g=original	!	!	!
=26	=26	=26	=26	=26	=26	=26	=26	=26
4F\	-na	.	2c\	-na	2f\	-na	(>4a\L	-na
4E\	.	.	.	.	.	.	4g\	.
4F\	.	.	2c\	vir-	2f\	vir-	4a\	.
4G\	.	.	.	.	.	.	4b-\	.
4A\	.	.	(>4c\	-go	2f\	-go	4cc\	.
4B-\	.	.	4d\)	.	.	.	4dd\)J	.
!	!	!	!LO:LB:g=original	!	!	!	!	!
=27	=27	=27	=27	=27	=27	=27	=27	=27
4c\	.	.	[>1.c	dul-	4e\	dul-	1cc	vir-
4d\	.	.	.	.	4f\	.	.	.
4c\	.	.	.	.	4e\	.	.	.
4B-\	.	.	.	.	4d\	.	.	.
4A\	.	.	.	.	4c\	.	(>4cc\L	-go
4G\	.	.	.	.	4e\	.	4b-\)J	.
=28	=28	=28	=28	=28	=28	=28	=28	=28
2F\	dul-	.	2c\]	.	2f\	.	2a\	dul-
2G\	-cis	.	2B-\	-cis	2e\	-cis	2b-\	-cis
!	!	!	!	!	!	!	!LO:TX:i:a:t=V&colon; S&colon;	!
!	!	!	!	!	!	!	!LO:TX:a:t=P:problem: napis za kreską na pięciolinii	!
2A\	et	.	2A\	et	2f\	et	2cc\	et
!	!	!	!	!	!	!	!LO:PB:g=original	!
=29	=29	=29	=29	=29	=29	=29	=29	=29
2B-\	se-	.	2d\	se-	2f\	se-	(>4b-\L	se-
.	.	.	.	.	.	.	4a\)J	.
(>2c\	-re-	.	1c	-re-	(>2f\	-re-	1g	-re-
2C/)	.	.	.	.	2e\)	.	.	.
!LO:LB:g=original	!	!	!	!	!	!	!	!
=30	=30	=30	=30	=30	=30	=30	=30	=30
1.F	-na	.	1.c	-na.	1.f	-na.	1.a	-na.
==31	==31	==31	==31	==31	==31	==31	==31	==31
1F	San-	.	1F	San-	1f	San-	1a	San-
2c\	-cta	.	2c\	-cta	2e\	-cta	2g\	-cta
!	!	!	!	!	!LO:LB:g=original	!	!	!
=32	=32	=32	=32	=32	=32	=32	=32	=32
2E\	pa-	.	2E/	pa-	2g\	pa-	2cc\	pa-
1F	-rens	.	1F	-rens	1f	-rens	1a	-rens
=33	=33	=33	=33	=33	=33	=33	=33	=33
1A	Je-	.	2r	.	2r	.	2r	.
.	.	.	2A\	Je-	(>4f\	Je-	(>4a\L	Je-
.	.	.	.	.	4a\)	.	4cc\)J	.
2B-\	-su	.	2B-\	-su	(>4g\	-su	(>4b-\L	-su
.	.	.	.	.	4f\)	.	4a\)J	.
=34	=34	=34	=34	=34	=34	=34	=34	=34
1c	Chri-	.	1c	Chri-	(>2f\	Chri-	(>2a\	Chri-
.	.	.	.	.	4e\	.	4g\L	.
.	.	.	.	.	4d\)	.	4f\)J	.
2C/	-sti	.	2C/	-sti	2e\	-sti	2g\	-sti
=35	=35	=35	=35	=35	=35	=35	=35	=35
1C	San-	.	1G	San-	1e	San-	1cc	San-
2G\	-cta	.	2G/	-cta	2d\	-cta	2bn\	-cta
!	!	!	!LO:LB:g=original	!	!	!	!LO:LB:g=original	!
=36	=36	=36	=36	=36	=36	=36	=36	=36
2BBn/	pa-	.	2G/	pa-	2g\	pa-	2dd\	pa-
!LO:TX:t=P:problem:2C poprawione na 1C	!	!	!	!	!	!	!	!
1C	-rens	.	1G	-rens	1e	-rens	1cc	-rens
=37	=37	=37	=37	=37	=37	=37	=37	=37
1E	Je-	.	2r	.	2r	.	2r	.
.	.	.	2G/	Je-	(>4e\	Je-	(>4cc\L	Je-
.	.	.	.	.	4g\)	.	4ee\)J	.
2F\	-su	.	2A/	-su	(>4f\	-su	(>4dd\L	-su
!	!	!	!	!	!LO:TX:i:a:t=V&colon; S&colon;	!	!	!
!	!	!	!	!	!LO:TX:a:t=P:problem: napis za kreską na pięciolinii	!	!	!
.	.	.	.	.	4e\)	.	4cc\)J	.
!LO:LB:g=original	!	!	!	!	!LO:PB:g=original	!	!	!
=38	=38	=38	=38	=38	=38	=38	=38	=38
1G	Chri-	.	1G	Chri-	2e\	Chri-	(>2cc\	Chri-
.	.	.	.	.	4d\	.	4bn\L	.
.	.	.	.	.	4c\	.	4a\)J	.
2GG/	-sti	.	2G/	-sti	2d\	-sti	2b\	-sti
=39	=39	=39	=39	=39	=39	=39	=39	=39
1G	e-	.	2r	.	2r	.	2r	.
.	.	.	2G/	e-	2d\	e-	2bn\	e-
2F\	-lec-	.	2G/	-le-	2d\	-le-	2b\	-le-
=40	=40	=40	=40	=40	=40	=40	=40	=40
(>4E\	-ta	.	(<4G/	-cta	4e\	-cta	(>4cc\L	-cta
4D\	.	.	4F/	.	4f\	.	4dd\)J	.
2E\)	.	.	2G/)	.	2e\	.	2cc\	so-
2C/	so-	.	2G/	so-	2g\	.	2ee\	-la
=41	=41	=41	=41	=41	=41	=41	=41	=41
4F\	-la	.	4A\	-la	1f	so-	1cc	so-
4E\	.	.	4G\	.	.	.	.	.
4F\	.	.	4A\	.	.	.	.	.
4G\	.	.	4B-\	.	.	.	.	.
4A\	.	.	4c\	.	(>4f\	-la	2cc\	-la
4E\	.	.	4G\	.	4g\)	.	.	.
!	!	!	!	!	!	!	!LO:LB:g=original	!
=42	=42	=42	=42	=42	=42	=42	=42	=42
2F\	.	.	2A\	.	(>2c\	so-	(>2a\	so-
2D\	.	.	2F/	.	2d\)	.	2bn\)	.
2C/	fu-	.	2G/	fu-	2e\	-la	2cc\	-la
=43	=43	=43	=43	=43	=43	=43	=43	=43
2A\	-i-	.	(<2F/	-i-	(>4f\	fu-	2cc\	fu-
.	.	.	.	.	4e\)	.	.	.
2G\	.	.	1G)	.	1d	-i-	(>2cc\	-i-
2GG/	.	.	.	.	.	.	2bn\)	.
!	!	!	!LO:LB:g=original	!	!LO:LB:g=original	!	!	!
=44	=44	=44	=44	=44	=44	=44	=44	=44
2C/	-sti	.	2G/	-sti	2e\	-sti	2cc\	-sti
2c\	es-	.	2c\	eſ-	2e\	eſ-	2g\	es-
2B-\	-se	.	2B-X\	-se	2e\	-se	2g\	-se
!LO:LB:g=original	!	!	!	!	!	!	!	!
=45	=45	=45	=45	=45	=45	=45	=45	=45
4A\	ma-	.	(>4A\	Ma-	(>4f\	Ma-	(>4a\L	Ma-
4G\	.	.	4G\	.	4g\	.	4b-X\)J	.
2A\	.	.	2A\)	.	2f\)	.	(>2a\	-ter
2F\	-ter	.	2F/	-ter	2a\	-ter	2cc\)	.
=46	=46	=46	=46	=46	=46	=46	=46	=46
4B-\	si-	.	(>4B-\	si-	(>4d\	si-	1.f	si-
4A\	.	.	4A\	.	4c\	.	.	.
4B-\	.	.	4B-\	.	4d\	.	.	.
4c\	.	.	4c\)	.	4e\)	.	.	.
4d\	-ne	.	(>4d\	-ne	(>4f\	-ne	.	.
4A\	.	.	4A\)	.	4c\)	.	.	.
=47	=47	=47	=47	=47	=47	=47	=47	=47
2B-\	si-	.	(>2B-\	si-	(>2d\	si-	2f/	-ne
!	!	!	!LO:SIC:v:s=2G	!	!	!	!	!
2G\	.	.	2A\	.	2e\)	.	2b-X\	si-
2F\	-ne	.	2F/)	.	2f\	-ne	2a\	-ne
=48	=48	=48	=48	=48	=48	=48	=48	=48
(>2B-\	vi-	.	2B-\	-ne	4g\	si-	(>4b-\L	vi-
.	.	.	.	.	4f\	-ne	4a\J	.
2c\	.	.	(>2c\	vi-	(>2f\	vi-	1g)	.
2C/)	.	.	2C/)	.	2e\)	.	.	.
!	!	!	!	!	!LO:LB:g=original	!	!LO:LB:g=original	!
=49	=49	=49	=49	=49	=49	=49	=49	=49
2F\	-ro	.	2F/	-ro	2f\	-ro	2a\	-ro
2F\	et	.	2c\	et	2f\	et	(>4a\L	et
.	.	.	.	.	.	.	4bn\)J	.
2E\	lac-	.	2en\	la-	2g\	la-	2cc#X\	la-
!	!	!	!LO:LB:g=original	!	!	!	!	!
=50	=50	=50	=50	=50	=50	=50	=50	=50
2D\	-ta-	.	2f\	-cta-	2a\	-cta-	2dd\	-cta-
2E\	-re	.	2en\	-re	2g\	-re	2cc#X\	-re
2F\	mo-	.	(>4d\	mo-	2f\	mo-	2dd\	mo-
.	.	.	4c\)	.	.	.	.	.
!LO:LB:g=original	!	!	!	!	!	!	!	!
=51	=51	=51	=51	=51	=51	=51	=51	=51
2G\	-do	.	2B-\	-do	2e\	-do	2dd\	-do
2A\	mi-	.	1A	mi-	1e	mi-	(>2dd\	mi-
2AA/	.	.	.	.	.	.	2cc#X\)	.
=52	=52	=52	=52	=52	=52	=52	=52	=52
2D\	-ro	.	2A\	-ro,	2d\	-ro	2dd\	-ro
2A\	et	.	2r	.	2c\	et	2a\	et
2B-\	lac-	.	2r	.	2d\	la-	2b-X\	la-
=53	=53	=53	=53	=53	=53	=53	=53	=53
4A\	-ta-	.	2r	.	2c\	-cta-	2a\	-cta-
4A\	-re	.	.	.	.	.	.	.
2F\	et	.	2c\	et	2A/	-re	2f/	-re
2B-\	lac-	.	2d\	la-	2r	.	2r	.
!	!	!	!	!	!LO:LB:g=original	!	!	!
=54	=54	=54	=54	=54	=54	=54	=54	=54
2.A\	-ta-	.	2.c\	-cta-	2r	.	2r	.
.	.	.	.	.	2r	.	2r	.
4G\	-re	.	4B-\	-re	.	.	.	.
2F\	mo-	.	2A\	mo-	2f\	mo-	2cc\	mo-
!	!	!	!	!	!	!	!LO:LB:g=original	!
=55	=55	=55	=55	=55	=55	=55	=55	=55
2B-\	-do	.	2d\	-do	2f\	-do	(>4b-\L	-do
.	.	.	.	.	.	.	4a\)J	.
2c\	mi-	.	1c	mi-	(>2f\	mi-	1g	mi-
2C/	.	.	.	.	2e\)	.	.	.
=56	=56	=56	=56	=56	=56	=56	=56	=56
4F\	-ro	.	2c\	-ro	2f\	-ro	(>4a\L	-ro
4E\	.	.	.	.	.	.	4g\	.
4F\	.	.	2c\	et	2f\	et	4a\	.
4G\	.	.	.	.	.	.	4b-\	.
4A\	.	.	(>4c\	la-	2f\	la-	4cc\	.
4B-\	.	.	4d\)	.	.	.	4dd\)J	.
!LO:LB:g=original	!	!	!LO:LB:g=original	!	!	!	!	!
=57	=57	=57	=57	=57	=57	=57	=57	=57
4c\	.	.	[>1.c	-cta-	4e\	-cta-	1cc	mo-
4d\	.	.	.	.	4f\	.	.	.
4c\	.	.	.	.	4e\	.	.	.
4B-\	.	.	.	.	4d\	.	.	.
4A\	.	.	.	.	4c\	.	(>4cc\L	-do
4G\	.	.	.	.	4e\	.	4b-\)J	.
=58	=58	=58	=58	=58	=58	=58	=58	=58
2F\	.	.	2c\]	.	2f\	.	(>2a\	mo-
2G\	mo-	.	2B-\	-re	2e\	-re	2b-\)	.
2A\	-do	.	2A\	mo-	2f\	mo-	2cc\	-do
!	!	!	!	!	!LO:LB:g=original	!	!	!
=59	=59	=59	=59	=59	=59	=59	=59	=59
2B-\	mi-	.	2d\	-do	2f\	-do	4b-\	mo-
.	.	.	.	.	.	.	4a\	-do
2c\	.	.	1c	mi-	(>2f\	mi-	1g	mi-
2C/	.	.	.	.	2e\)	.	.	.
=60	=60	=60	=60	=60	=60	=60	=60	=60
1.F	-ro.	.	1.c	-ro.	1.f	-ro.	1.a	-ro.
==	==	==	==	==	==	==	==	==
*-	*-	*-	*-	*-	*-	*-	*-	*-
!!!system-decoration: [(s1,s2,s3,s4)]
!!!RDF**kern: > = above
!!!RDF**kern: < = below
!!!EED: Mateusz Mrugas
!!!EST: 2021-02-11
!!!AIN: 1 alto 1 bass 2 tenor
!!!ENC: Katarzyna Serwa
!!!END: 2021-02-01
